X:1
T:Easter Song, 76.76.88
T:Easter Song, 76.76.88
T:L. L. B, 1883
T:Public Domain Courtesy of the Cyber Hymnal™
C:L. L. B, 1883
Z:Public Domain
Z:Courtesy of the Cyber Hymnal™
%%score ( 1 2 ) ( 3 4 )
L:1/8
Q:1/4=115
M:4/4
K:Eb
V:1 treble 
V:2 treble 
V:3 bass 
V:4 bass 
V:1
 [GB]2 [EG]2 [Ge]2 [Ac]2 | [GB]2 [EG]2 E4 | [B,D]2 [DF]2 [FA]2 [Ac]2 | [GB]2 [EG]6 | %4
 [GB]2 [EG]2 [ce]2 [Ac]2 | [GB]2 [EG]2 E4 | [EG]2 [DF]2 [DA]2 [B,D]2 | [B,D]2 [B,E]6 | %8
 [Ge]2 [Bd]2 [Ac]2 [GB]2 | [Ac]2 [GB]2 [GB]2 [EG]2 | [EB]2 (cd) [Ge]3 [FA] | %11
 [EG]2 [DF]2 [DF]2 E2 |] %12
V:2
 x8 | x4 E4 | x8 | x8 | x8 | x4 E4 | x8 | x8 | x8 | x8 | x2 A2 x4 | x6 E2 |] %12
V:3
 [E,B,]2 [E,B,]2 [E,B,]2 [E,E]2 | [E,E]2 [E,B,]2 [E,G,]4 | [B,,B,]2 [B,,B,]2 [B,,B,]2 [B,,B,]2 | %3
 [E,B,]2 [E,B,]6 | [E,B,]2 [E,B,]2 [E,C]2 [E,E]2 | [E,E]2 [E,B,]2 [E,G,]4 | %6
 [B,,B,]2 [B,,B,]2 [B,,B,]2 [B,,A,]2 | [B,,A,]2 [E,G,]6 | [E,B,]2 [E,B,]2 [E,E]2 [E,E]2 | %9
 [E,E]2 [E,E]2 [E,E]2 [E,B,]2 | [G,E]2 [F,B,]2 [E,B,]3 [A,C] | B,2 [B,,A,]2 [B,,A,]2 [E,G,]2 |] %12
V:4
 x8 | x8 | x8 | x8 | x8 | x8 | x8 | x8 | x8 | x8 | x8 | B,2 x6 |] %12

